Papirus/16x16/apps/forza-horizon-5.svg

<svg width="16" height="16" version="1.1" xmlns="http://www.w3.org/2000/svg">
 <rect width="16" height="16" ry="2" style="fill:#e3536d"/>
 <path d="m7.999999 5.0000003c-1.661994 0-2.543414 0.401953-3 2h3-1 5.5c1.661994 0 2.354161-1.092978 2.5-2zm-7 3 5.035156 1.9316414-0.785156 1.5683593 1.75-0.5 1-3.0000007h-1zm8 0-1 2.7500007 1-0.25 1-2.5000007zm2 0-1 2.2500007 1-0.25 1-2.0000007zm-7.25 2.1480007-1.75 2.852 2-1 0.89655-1.5135z" style="fill:#2f2f2f"/>
</svg>

<svg xmlns="http://www.w3.org/2000/svg" width="16" height="16" version="1.1">
 <rect style="fill:#e3536d" width="16" height="16" ry="2"/>
 <path style="fill:#2f2f2f" d="M 8,5 C 6.338,5 5.457,5.402 5,7 H 12.5 C 14.162,7 14.854,5.907 15,5 Z M 1,8 6.035,9.932 5.25,11.5 7,11 8,8 Z M 9,8 8,10.75 9,10.5 10,8 Z M 11,8 10,10.25 11,10 12,8 Z M 3.75,10.148 2,13 4,12 4.896,10.487 Z"/>
</svg>
